X:1
T: Mrs. Rigg
C:Nathaniel Gow
R:Jig
Q:180
K:Gm
M:6/8
L:1/16
D2|G4G2 Bcd2B2|F2A2c2 f2c2A2|G4G2 Bcd2B2|G2B2d2 g2d2g2|f2a2f2 d2f2d2|c2f2d2 c2A2F2|G4G2 ABc2A2|G6G4D2|
G4G2 Bcd2B2|F2A2c2 f2c2A2|G4G2 Bcd2B2|G2B2d2 g2d2g2|f2a2f2 d2f2d2|c2f2d2 c2A2F2|G4G2 ABc2A2|G6G4d2|
g2a2g2 b2a2g2|f2g2f2 f2g2a2|g2a2g2 b2a2g2|g2d2g2 g2a2b2|g2a2g2 b2a2g2|f2c2f2 f2g2a2|g2d2g2 a2^f2a2|g6g4d2|
g2a2g2 b2a2g2|f2g2f2 f2g2a2|g2a2g2 b2a2g2|f2=e2_e2 d2c2B2|d2f2d2 B2c2d2|c2=e2f2 c2A2F2|G2B2c2 d4D2|G6G,4||
